X: 1
T:Stan Chapman's
C:Trad
R:Jig
M:6/8
K:A
Z:From e.g. Solas
L:1/8
E3 EFA|B3 Bce|fea fec|ecA BAF|E3 EFA|B3 Bce|fea fec|1 ecA AGF:|2 ecA A3|
e3 ecA|f3 fga|fec BAB|cAF F2E|e3 ecA|f3 fga|fec BAB|1 cAA A3:|2 cAA AGF|
|
